img/favicon 1.svg

<svg width="32" height="32" viewBox="0 0 32 32" fill="none" xmlns="http://www.w3.org/2000/svg">
<path d="M25.9048 0H6.09524C2.72893 0 0 2.72893 0 6.09524V25.9048C0 29.2711 2.72893 32 6.09524 32H25.9048C29.2711 32 32 29.2711 32 25.9048V6.09524C32 2.72893 29.2711 0 25.9048 0Z" fill="#4B61C3"/>
<path d="M8.45243 6.09521V14.217C9.52472 13.2071 10.9423 12.6447 12.4155 12.6446C14.1071 12.6446 15.7294 13.3164 16.9255 14.5121C18.1217 15.7079 18.7936 17.3297 18.7936 19.0207C18.7936 20.7118 18.1217 22.3335 16.9255 23.5293C15.7294 24.725 14.1071 25.3968 12.4155 25.3968C10.9287 25.3891 9.50482 24.796 8.45243 23.746V25.1822H6.09521V6.83806L8.45243 6.09521ZM12.366 23.2302C14.4961 23.2302 16.23 21.3235 16.23 19.0702C16.23 16.7427 14.4961 14.8855 12.366 14.8855C10.2358 14.8855 8.57215 16.7427 8.57215 19.0702C8.57215 21.3112 10.2854 23.2302 12.366 23.2302V23.2302Z" fill="white"/>
<path d="M25.9048 12.7649V15.3543C25.5561 15.2681 25.1976 15.2263 24.8381 15.2298C23.0095 15.2298 21.3079 16.0597 21.3079 18.5496V25.3967H18.7936V12.9474H21.3079V14.0928C21.9428 13.2628 23.0857 12.6985 24.8381 12.6985C25.1948 12.6958 25.5512 12.718 25.9048 12.7649V12.7649Z" fill="white"/>
</svg>

<svg width="32" height="32" fill="none" xmlns="http://www.w3.org/2000/svg"><path d="M25.905 0H6.095A6.095 6.095 0 000 6.095v19.81A6.095 6.095 0 006.095 32h19.81A6.095 6.095 0 0032 25.905V6.095A6.095 6.095 0 0025.905 0z" fill="#4B61C3"/><path d="M8.452 6.095v8.122a5.78 5.78 0 013.963-1.572 6.38 6.38 0 016.379 6.376 6.375 6.375 0 01-6.379 6.376 5.652 5.652 0 01-3.963-1.651v1.436H6.095V6.838l2.357-.743zm3.914 17.135c2.13 0 3.864-1.907 3.864-4.16 0-2.327-1.734-4.184-3.864-4.184s-3.794 1.857-3.794 4.184c0 2.241 1.713 4.16 3.794 4.16z" fill="#fff"/><path d="M25.905 12.765v2.59a4.272 4.272 0 00-1.067-.125c-1.829 0-3.53.83-3.53 3.32v6.847h-2.514v-12.45h2.514v1.146c.635-.83 1.778-1.395 3.53-1.395a7.67 7.67 0 011.067.067z" fill="#fff"/></svg>
